X:1
T:Title
%%score 1 2
L:1/8
Q:1/4=100
M:6/8
K:D
V:1 treble nm="Voice Oohs, Staff"
V:2 bass nm="Nylon Gtr., Staff-1"
V:1
 D A2 AB>c | d c2 A F2 | E D2 E F2 | GA>B A G2 | F E2- E2- E/ z/ | E F2 E D2 | E F2 G A2 | %7
w: By~John~Wheeler~&~William~James * * * *|||||||
 A B2 A G2 | A B2 c d2 | d c2 A B2 | B A2 F G2 | G F2 G A2 |[M:9/8] Bc>d e A2- A2- A/ z/ | %13
w: ||||||
[M:6/8] AD>E FE>D | E D2- D2 z |] %15
w: ||
V:2
 z [F,A,D]2- [F,A,D]/ z/ [G,B,D]2- | [G,B,D] [F,A,D]2- [F,A,D]/ z/ [G,B,D]2- | %2
 [G,B,D] [F,A,D]2- [F,A,D]3- | [F,A,D]3 z [G,A,CE]2 | [F,A,D] [G,A,CE]2- [G,A,CE]3- | %5
 [G,A,CE] [F,A,D]2 [G,A,CE] [F,A,D]2- | [F,A,D]3 [G,A,CE] [F,A,D]2- | %7
 [F,A,D] [G,B,D]2 [F,A,D] [G,B,E]2 | [F,A,D] [G,B,D]2- [G,B,D]/ z/ [F,B,D]2- | %9
 [F,B,D] [F,A,D]2- [F,A,D]/ z/ [G,B,D]2- | [G,B,D] [F,A,D]2 [F,B,^D] [G,B,E]2- | %11
 [G,B,E] [F,A,D]2- [F,A,D]3- |[M:9/8] [F,A,D] [A,CE]2- [A,CE]3- [A,CE]/ z/ [F,A,D]2 | %13
[M:6/8] [G,A,CE] [F,A,D]2- [F,A,D]/ z/ [G,A,CE]2- | [G,A,CE] [F,A,D]2- [F,A,D]2 z |] %15

